svgs/light/moped.svg

<svg xmlns="http://www.w3.org/2000/svg" viewBox="0 0 640 512"><!--! Font Awesome Pro 6.4.2 by @fontawesome - https://fontawesome.com License - https://fontawesome.com/license (Commercial License) Copyright 2023 Fonticons, Inc. --><path d="M336 48c0-8.8 7.2-16 16-16h40.9c20.7 0 39 13.2 45.5 32.8l5.2 15.5L500.3 52c5.2-2.6 11-4 16.9-4C532 48 544 60 544 74.9v74.3c0 14.8-12 26.9-26.9 26.9c-5.9 0-11.6-1.4-16.9-4L469 156.4 494.5 233c5.7-.7 11.6-1 17.5-1c41.5 0 79.1 16.6 106.5 43.5c6.3 6.2 6.4 16.3 .2 22.6s-16.3 6.4-22.6 .2C574.4 277.1 544.7 264 512 264c-56.5 0-104 39.1-116.7 91.8c-1.1 4.6-2 9.3-2.5 14.1c-.9 8.1-7.8 14.1-15.9 14.1H336 288 256c0 53-43 96-96 96s-96-43-96-96H32c-17.7 0-32-14.3-32-32V320c0-70.7 57.3-128 128-128h96c17.7 0 32 14.3 32 32v96c0 17.7 14.3 32 32 32h32 16 16 11.4c.3-1.3 .6-2.5 .9-3.8c12.2-50.8 50-91.6 98.9-108.2l-55-165.1c-2.2-6.5-8.3-10.9-15.2-10.9H352c-8.8 0-16-7.2-16-16zm118.7 65.5c.2 .1 .3 .1 .5 .2L512 142.1V81.9l-56.8 28.4c-.4 .2-.9 .4-1.3 .6l.9 2.6zM112 128H240c8.8 0 16 7.2 16 16s-7.2 16-16 16H112c-8.8 0-16-7.2-16-16s7.2-16 16-16zm112 96H128c-53 0-96 43-96 96l0 32H69.5h35.1H215.4h17.1c-5.4-9.4-8.6-20.3-8.6-32V224zM160 448c35.3 0 64-28.7 64-64H96c0 35.3 28.7 64 64 64zm352 0a64 64 0 1 0 0-128 64 64 0 1 0 0 128zm0-160a96 96 0 1 1 0 192 96 96 0 1 1 0-192z"/></svg>

<svg xmlns="http://www.w3.org/2000/svg" viewBox="0 0 640 512"><!--! Font Awesome Pro 6.1.1 by @fontawesome - https://fontawesome.com License - https://fontawesome.com/license (Commercial License) Copyright 2022 Fonticons, Inc. --><path d="M336 48C336 39.16 343.2 32 352 32H392.9C413.6 32 431.9 45.22 438.5 64.82L443.6 80.3L500.3 51.98C505.5 49.36 511.3 48 517.1 48C531.1 48 544 60.03 544 74.87V149.1C544 163.1 531.1 175.1 517.1 175.1C511.3 175.1 505.5 174.6 500.3 172L468.1 156.4L494.5 232.1C500.3 232.3 506.1 231.1 512 231.1C553.5 231.1 591.1 248.6 618.5 275.5C624.8 281.7 624.9 291.9 618.7 298.2C612.5 304.5 602.4 304.6 596.1 298.4C574.4 277.1 544.7 264 512 264C455.5 264 408 303.1 395.3 355.8C393.2 364.8 392 374.2 392 384H256C256 437 213 480 160 480C106.1 480 64 437 64 384H32C14.33 384 0 369.7 0 352V320C0 249.3 57.31 192 128 192H224C241.7 192 256 206.3 256 224V320C256 337.7 270.3 352 288 352H363.4C363.6 350.7 363.9 349.5 364.2 348.2C376.5 297.5 414.2 256.6 463.1 240L408.1 74.94C405.9 68.41 399.8 64 392.9 64H352C343.2 64 336 56.84 336 48V48zM454.7 113.5C454.8 113.5 454.1 113.6 455.2 113.7L512 142.1V81.89L455.2 110.3C454.7 110.5 454.3 110.7 453.8 110.9L454.7 113.5zM224 224H128C74.98 224 32 266.1 32 320V352H232.6C227.1 342.6 224 331.7 224 320V224zM224 384H96C96 419.3 124.7 448 160 448C195.3 448 224 419.3 224 384zM240 128C248.8 128 256 135.2 256 144C256 152.8 248.8 160 240 160H112C103.2 160 96 152.8 96 144C96 135.2 103.2 128 112 128H240zM416 384C416 330.1 458.1 288 512 288C565 288 608 330.1 608 384C608 437 565 480 512 480C458.1 480 416 437 416 384zM512 448C547.3 448 576 419.3 576 384C576 348.7 547.3 320 512 320C476.7 320 448 348.7 448 384C448 419.3 476.7 448 512 448z"/></svg>
